X:180
T:RVW2/2/180 Cold Blows
C:Mr. Baker (Snr.), Forest Green, Surrey, 21 December 1904
Z:Transcribed by Simon Furey and Lewis Jones
F:http://www.vwml.org/record/RVW2/1/180
L:1/4
Q:1/4=100
M:4/4
I:linebreak $
K:D
"^(Editorial suggestion  " G | G3/2 B/ A G | G E D D | G G B d | A3 d |$ B3/2 A/ G/F/E/D/ | 
G3/2 G/ A d | A A G/F/ E | D2 z |] 



